images/icons/services-decor.svg

<svg width="168" height="44" viewBox="0 0 168 44" fill="none" xmlns="http://www.w3.org/2000/svg">
<g clip-path="url(#clip0_1_237)">
<path d="M0 5C6 -0.333333 12 -0.333333 18 5C24 10.3333 30 10.3333 36 5C42 -0.333333 48 -0.333333 54 5C60 10.3333 66 10.3333 72 5C78 -0.333333 84 -0.333333 90 5C96 10.3333 102 10.3333 108 5C114 -0.333333 120 -0.333333 126 5C132 10.3333 138 10.3333 144 5C150 -0.333333 156 -0.333333 162 5C168 10.3333 174 10.3333 180 5" stroke="#D8D8EB" stroke-width="2"/>
<path d="M49 39C55 33.6667 61 33.6667 67 39C73 44.3333 79 44.3333 85 39C91 33.6667 97 33.6667 103 39C109 44.3333 115 44.3333 121 39C127 33.6667 133 33.6667 139 39C145 44.3333 151 44.3333 157 39C163 33.6667 169 33.6667 175 39C181 44.3333 187 44.3333 193 39C199 33.6667 205 33.6667 211 39C217 44.3333 223 44.3333 229 39" stroke="#D8D8EB" stroke-width="2"/>
</g>
<defs>
<clipPath id="clip0_1_237">
<rect width="168" height="44" fill="white"/>
</clipPath>
</defs>
</svg>

<svg width="168" height="44" fill="none" xmlns="http://www.w3.org/2000/svg"><g clip-path="url(#clip0_1_237)" stroke="#D8D8EB" stroke-width="2"><path d="M0 5C6-.333 12-.333 18 5s12 5.333 18 0S48-.333 54 5s12 5.333 18 0S84-.333 90 5s12 5.333 18 0 12-5.333 18 0 12 5.333 18 0 12-5.333 18 0 12 5.333 18 0M49 39c6-5.333 12-5.333 18 0s12 5.333 18 0 12-5.333 18 0 12 5.333 18 0 12-5.333 18 0 12 5.333 18 0 12-5.333 18 0 12 5.333 18 0 12-5.333 18 0 12 5.333 18 0"/></g><defs><clipPath id="clip0_1_237"><path fill="#fff" d="M0 0h168v44H0z"/></clipPath></defs></svg>
